X: 1
P: East's Hornpipe
C: By David Knight (c) 2002
C: arr. T. Traub 8-22-2004
R: Reel
M: 4/4
L: 1/8
K: F
|: bg|"C7"e2 c2 c2 de|"F"fefg afga|"Gm"b2 ba "F7"gagf|"C"e2 g2 g2 ga|"Bb"bagf "C7"edcB|
"F"Acfe fcAc|"Gm"dcBA BGcB|"F"A2 F2 F2 :||: BA|"Eb"G2 _E2 _E2 cG|"Cm"_E2 C2 C2 Bc|
"Gm"dcBA "D7"BdcA|"Gm"B2 G2 G2 cB|"Dm"A2 F2 "Bb"D2 de|"Dm"fgag "F"fcAc|"Bb"dcBA "C7"BGcB|"F"A2 F2 F2 :|
